src/assets/icons/category_Babies.svg

<?xml version="1.0" encoding="UTF-8" standalone="no"?>
<svg width="38px" height="38px" viewBox="0 0 38 38" version="1.1" xmlns="http://www.w3.org/2000/svg" xmlns:xlink="http://www.w3.org/1999/xlink">
    <!-- Generator: sketchtool 41.2 (35397) - http://www.bohemiancoding.com/sketch -->
    <title>7DC36BD6-96A8-43B8-A10B-059BB793DD48</title>
    <desc>Created with sketchtool.</desc>
    <defs></defs>
    <g id="Nav" stroke="none" stroke-width="1" fill="none" fill-rule="evenodd">
        <g id="Categories_Selected_Mobile-" transform="translate(-80.000000, -556.000000)" fill="#AEAEAE">
            <path d="M108.746769,578.054333 C108.746769,580.666833 106.621144,582.791667 104.009436,582.791667 L93.6924359,582.791667 C91.4852692,582.791667 89.5401442,581.227333 89.0691025,579.071625 C88.9511442,578.5325 88.5592692,578.07175 88.0201442,577.841375 C86.9442692,577.380625 86.3798109,576.250125 86.6466025,575.091917 C86.8405609,574.250375 87.5364359,573.553708 88.3771859,573.358958 C88.5806442,573.31225 88.7769775,573.290083 88.9646025,573.290083 C89.9644775,573.290083 90.7244775,573.909167 91.0736025,574.616917 C91.3926442,575.2645 92.0220192,575.666667 92.7163109,575.666667 L97.6634359,575.666667 L107.176103,575.666667 C108.042186,575.666667 108.746769,576.372042 108.746769,577.238125 L108.746769,578.054333 Z M103.996769,586.75 C103.560561,586.75 103.205103,586.395333 103.205103,585.958333 C103.205103,585.522125 103.560561,585.166667 103.996769,585.166667 C104.432978,585.166667 104.788436,585.522125 104.788436,585.958333 C104.788436,586.395333 104.432978,586.75 103.996769,586.75 L103.996769,586.75 Z M93.7051025,586.75 C93.2688942,586.75 92.9134359,586.395333 92.9134359,585.958333 C92.9134359,585.522125 93.2688942,585.166667 93.7051025,585.166667 C94.1413109,585.166667 94.4967692,585.522125 94.4967692,585.958333 C94.4967692,586.395333 94.1413109,586.75 93.7051025,586.75 L93.7051025,586.75 Z M100.038436,564.583333 C101.354186,564.583333 102.598686,564.88575 103.718103,565.410625 L99.2467692,572.226083 L99.2467692,565.375 C99.2467692,564.938792 99.6022275,564.583333 100.038436,564.583333 L100.038436,564.583333 Z M107.776186,569.313542 L100.731936,572.847542 L105.086894,566.209417 C106.211853,567.014542 107.137311,568.076958 107.776186,569.313542 L107.776186,569.313542 Z M108.746769,573.291667 C108.746769,573.728667 108.391311,574.083333 107.955103,574.083333 L107.176103,574.083333 L101.799103,574.083333 L108.375478,570.784458 C108.614561,571.579292 108.746769,572.420042 108.746769,573.291667 L108.746769,573.291667 Z M110.330103,573.291667 C110.330103,567.617 105.713103,563 100.038436,563 C98.7290192,563 97.6634359,564.065583 97.6634359,565.375 L97.6634359,574.083333 L92.7163109,574.083333 C92.6133942,574.083333 92.5342275,573.997042 92.4938525,573.916292 C91.6768525,572.260125 89.8338525,571.396417 88.0201442,571.816792 C86.5801025,572.150083 85.4353525,573.296417 85.1036442,574.73725 C84.6690192,576.623792 85.6332692,578.541208 87.3971025,579.29725 C87.4691442,579.328125 87.5150609,579.378 87.5221859,579.409667 C88.0383525,581.770417 89.8789775,583.597583 92.1494775,584.178667 C91.6515192,584.614083 91.3301025,585.246625 91.3301025,585.958333 C91.3301025,587.268542 92.3956859,588.333333 93.7051025,588.333333 C95.0145192,588.333333 96.0801025,587.268542 96.0801025,585.958333 C96.0801025,585.347958 95.8418109,584.796167 95.4626025,584.375 L102.239269,584.375 C101.860061,584.796167 101.621769,585.347958 101.621769,585.958333 C101.621769,587.268542 102.687353,588.333333 103.996769,588.333333 C105.306186,588.333333 106.371769,587.268542 106.371769,585.958333 C106.371769,585.245833 106.049561,584.613292 105.550811,584.177083 C108.292353,583.485958 110.330103,581.00725 110.330103,578.054333 L110.330103,577.238125 C110.330103,576.410042 110.002353,575.661917 109.479061,575.09825 C109.995228,574.662042 110.330103,574.018417 110.330103,573.291667 Z M88.3930192,575.1049 C88.2505192,575.255317 88.1634359,575.46115 88.1634359,575.666983 C88.1634359,575.880733 88.2505192,576.07865 88.3930192,576.229067 C88.5434359,576.371567 88.7492692,576.45865 88.9551025,576.45865 C89.1609359,576.45865 89.3667692,576.371567 89.5171859,576.229067 C89.6596859,576.07865 89.7467692,575.880733 89.7467692,575.666983 C89.7467692,575.46115 89.6596859,575.255317 89.5171859,575.1049 C89.2242692,574.811983 88.6859359,574.811983 88.3930192,575.1049 Z" id="Combined-Shape"></path>
        </g>
    </g>
</svg>

<svg width="38" height="38" viewBox="0 0 38 38" xmlns="http://www.w3.org/2000/svg"><g id="Nav" fill="none" fill-rule="evenodd"><g id="Categories_Selected_Mobile-" transform="translate(-80 -556)" fill="#AEAEAE"><path d="M108.747 578.054a4.743 4.743 0 0 1-4.738 4.738H93.692a4.76 4.76 0 0 1-4.623-3.72c-.118-.54-.51-1-1.049-1.23-1.076-.461-1.64-1.592-1.373-2.75a2.357 2.357 0 0 1 2.318-1.802c1 0 1.76.62 2.109 1.327.319.648.948 1.05 1.642 1.05h14.46c.866 0 1.57.705 1.57 1.571v.816zm-4.75 8.696a.792.792 0 1 1 .001-1.585.792.792 0 0 1-.001 1.585zm-10.292 0a.792.792 0 1 1 .002-1.585.792.792 0 0 1-.002 1.585zm6.333-22.167c1.316 0 2.56.303 3.68.828l-4.471 6.815v-6.851c0-.436.355-.792.791-.792zm7.738 4.73l-7.044 3.535 4.355-6.639a8.773 8.773 0 0 1 2.69 3.105zm.97 3.979a.792.792 0 0 1-.79.791h-6.157l6.576-3.299c.24.795.372 1.636.372 2.508zm1.584 0c0-5.675-4.617-10.292-10.292-10.292a2.378 2.378 0 0 0-2.375 2.375v8.708h-4.947c-.103 0-.182-.086-.222-.167a3.966 3.966 0 0 0-4.474-2.1 3.918 3.918 0 0 0-2.916 2.921 3.977 3.977 0 0 0 2.293 4.56c.072.031.118.081.125.113.516 2.36 2.357 4.188 4.627 4.769a2.36 2.36 0 0 0-.819 1.78 2.377 2.377 0 0 0 2.375 2.374 2.377 2.377 0 0 0 2.375-2.375 2.36 2.36 0 0 0-.617-1.583h6.776a2.36 2.36 0 0 0-.617 1.583 2.377 2.377 0 0 0 2.375 2.375 2.377 2.377 0 0 0 2.375-2.375c0-.712-.322-1.345-.821-1.78 2.741-.692 4.78-3.17 4.78-6.124v-.816c0-.828-.329-1.576-.852-2.14a2.36 2.36 0 0 0 .851-1.806zm-21.937 1.813a.832.832 0 0 0-.23.562c0 .214.088.412.23.562.15.143.356.23.562.23a.832.832 0 0 0 .562-.23.818.818 0 0 0 .23-.562.832.832 0 0 0-.23-.562c-.293-.293-.831-.293-1.124 0z" id="Combined-Shape"/></g></g></svg>
